assets/images/per1-mob.svg

<svg width="253" height="352" viewBox="0 0 253 352" fill="none" xmlns="http://www.w3.org/2000/svg">
<path d="M12 319.797C12 327.182 10.278 330 5.98878 330C1.69954 330 0 326.96 0 319.785C0 312.06 2.42415 310 6.08722 310C9.98286 310 12 312.375 12 319.797ZM3.36784 319.682C3.36784 324.794 3.73908 327.436 6.01116 327.436C8.28325 327.436 8.63211 324.913 8.63211 319.744C8.63211 314.41 8.18487 312.585 6.02907 312.585C3.99403 312.581 3.36784 314.521 3.36784 319.682Z" fill="#FFB75E"/>
<path d="M252.989 266.215C252.989 266.37 252.989 266.52 252.989 266.675C252.867 268.924 251.914 271.03 250.338 272.533C248.763 274.036 246.692 274.813 244.58 274.695C242.468 274.576 240.486 273.572 239.067 271.901C237.648 270.23 236.908 268.029 237.009 265.779C237.119 263.562 238.037 261.478 239.568 259.971C241.098 258.464 243.12 257.652 245.204 257.709C247.287 257.766 249.268 258.687 250.724 260.275C252.18 261.864 252.997 263.995 253 266.215L252.989 266.215ZM240.702 266.215C240.732 267.434 241.212 268.591 242.037 269.436C242.862 270.281 243.966 270.746 245.11 270.73C246.254 270.714 247.347 270.218 248.151 269.351C248.955 268.483 249.406 267.313 249.406 266.094C249.406 264.875 248.955 263.705 248.151 262.838C247.347 261.97 246.254 261.475 245.11 261.459C243.966 261.443 242.862 261.908 242.037 262.753C241.212 263.597 240.732 264.755 240.702 265.973L240.702 266.215Z" fill="#FFB75E"/>
<path d="M128.014 19.7066C83.9325 19.7066 47.6788 53.2881 43.3472 96.3115C43.1405 98.3741 42.4434 100.357 41.3143 102.094C40.1851 103.831 38.6569 105.272 36.8576 106.296C28.405 111.111 21.3751 118.081 16.4823 126.5C11.5895 134.918 9.00803 144.484 9.00024 154.225L9.00024 219.725C8.99252 220.224 9.16887 220.708 9.49543 221.084C9.82199 221.461 10.2758 221.703 10.7698 221.765C11.0431 221.792 11.319 221.761 11.5797 221.675C11.8404 221.588 12.08 221.448 12.283 221.262C12.4861 221.077 12.648 220.851 12.7584 220.599C12.8688 220.347 12.9251 220.075 12.9238 219.8L12.9238 154.217C12.9113 142.951 16.6257 131.999 23.4861 123.073C29.8972 114.712 43.1353 117.404 45.921 127.574C55.8084 163.691 88.8096 190.232 127.998 190.232C167.187 190.232 200.192 163.691 210.079 127.574C212.861 117.404 226.099 114.712 232.51 123.073C239.372 131.999 243.087 142.951 243.076 154.217L243.076 258.657C243.069 259.155 243.244 259.638 243.57 260.015C243.896 260.391 244.349 260.634 244.842 260.697C245.116 260.724 245.392 260.694 245.653 260.607C245.914 260.521 246.154 260.381 246.358 260.195C246.561 260.01 246.724 259.784 246.834 259.532C246.945 259.279 247.001 259.007 247 258.731L247 154.217C246.992 144.476 244.411 134.91 239.518 126.492C234.625 118.073 227.595 111.103 219.143 106.288C217.343 105.264 215.815 103.824 214.686 102.086C213.557 100.349 212.86 98.3663 212.653 96.3036C208.349 53.2881 172.099 19.7066 128.014 19.7066Z" fill="#FFB75E"/>
<path d="M129.528 25.7307C172.411 26.7864 206.946 61.1413 207.977 103.75C209.074 149.138 171.538 186.597 125.862 185.69C105.076 185.294 85.2532 176.912 70.5525 162.303C55.8518 147.695 47.4164 127.995 47.0164 107.339C46.0997 61.9116 83.8208 24.6203 129.528 25.7307Z" fill="url(#paint0_linear_1227_15)"/>
<path d="M180.32 52.7964C151.181 23.6377 104.033 23.5423 75.0109 52.5832C45.9894 81.6241 46.0848 128.804 75.224 157.963C104.363 187.121 151.512 187.217 180.534 158.176C209.555 129.135 209.46 81.9551 180.32 52.7964Z" fill="#F9F9F9"/>
<path d="M12 252.564L12 252.849C12 253.607 11.842 254.334 11.5607 254.87C11.2794 255.406 10.8978 255.707 10.5 255.707C10.1022 255.707 9.72065 255.406 9.43934 254.87C9.15804 254.334 9 253.607 9 252.849L9 252.564C9 251.806 9.15804 251.079 9.43934 250.543C9.72065 250.008 10.1022 249.707 10.5 249.707C10.8978 249.707 11.2794 250.008 11.5607 250.543C11.842 251.079 12 251.806 12 252.564Z" fill="#FFB75E"/>
<path d="M12 285.634L12 286.02C12 286.531 11.842 287.021 11.5607 287.383C11.2794 287.744 10.8978 287.947 10.5 287.947C10.1022 287.947 9.72065 287.744 9.43934 287.383C9.15804 287.021 9 286.531 9 286.02L9 285.634C9 285.123 9.15804 284.633 9.43934 284.271C9.72065 283.91 10.1022 283.707 10.5 283.707C10.8978 283.707 11.2794 283.91 11.5607 284.271C11.842 284.633 12 285.123 12 285.634ZM12 317.512L12 317.897C12 318.409 11.842 318.899 11.5607 319.26C11.2794 319.622 10.8978 319.825 10.5 319.825C10.1022 319.825 9.72065 319.622 9.43934 319.26C9.15804 318.899 9 318.409 9 317.897L9 317.512C9 317.001 9.15804 316.51 9.43934 316.149C9.72065 315.787 10.1022 315.584 10.5 315.584C10.8978 315.584 11.2794 315.787 11.5607 316.149C11.842 316.51 12 317.001 12 317.512ZM12 349.393L12 349.779C12 350.29 11.842 350.78 11.5607 351.142C11.2794 351.503 10.8978 351.707 10.5 351.707C10.1022 351.707 9.72065 351.503 9.43934 351.142C9.15804 350.78 9 350.29 9 349.779L9 349.393C9 348.882 9.15804 348.392 9.43934 348.031C9.72065 347.669 10.1022 347.466 10.5 347.466C10.8978 347.466 11.2794 347.669 11.5607 348.031C11.842 348.392 12 348.882 12 349.393Z" fill="#FFB75E"/>
<path d="M18.6 330L18.6 313.711C17.7493 313.907 16.8768 314.011 16 314.021L16 311.606C17.383 311.409 18.6762 310.852 19.7273 310H22L22 330H18.6Z" fill="#FFB75E"/>
<path d="M147.344 85.4687C147.087 85.4687 146.84 85.3666 146.659 85.185C146.477 85.0033 146.375 84.7569 146.375 84.4999V74.8124H142.5V79.6562C142.5 79.9131 142.398 80.1595 142.216 80.3412C142.035 80.5229 141.788 80.6249 141.531 80.6249C141.274 80.6249 141.028 80.5229 140.846 80.3412C140.665 80.1595 140.563 79.9131 140.563 79.6562V73.8437C140.563 73.5868 140.665 73.3404 140.846 73.1587C141.028 72.977 141.274 72.8749 141.531 72.8749H147.344C147.601 72.8749 147.847 72.977 148.029 73.1587C148.21 73.3404 148.313 73.5868 148.313 73.8437V84.4999C148.313 84.7569 148.21 85.0033 148.029 85.185C147.847 85.3666 147.601 85.4687 147.344 85.4687ZM151.219 129.062H141.613C141.356 129.062 141.109 128.96 140.928 128.779C140.746 128.597 140.644 128.351 140.644 128.094C140.644 127.837 140.746 127.59 140.928 127.409C141.109 127.227 141.356 127.125 141.613 127.125H148.313V98.0624H145.406C145.149 98.0624 144.903 97.9604 144.721 97.7787C144.54 97.597 144.438 97.3506 144.438 97.0937C144.438 96.8368 144.54 96.5904 144.721 96.4087C144.903 96.227 145.149 96.1249 145.406 96.1249H152.691L128.938 73.2508L105.184 96.1249H112.469C112.726 96.1249 112.972 96.227 113.154 96.4087C113.335 96.5904 113.438 96.8368 113.438 97.0937C113.438 97.3506 113.335 97.597 113.154 97.7787C112.972 97.9604 112.726 98.0624 112.469 98.0624H109.563V108.719C109.563 108.976 109.46 109.222 109.279 109.404C109.097 109.585 108.851 109.687 108.594 109.687C108.337 109.687 108.09 109.585 107.909 109.404C107.727 109.222 107.625 108.976 107.625 108.719V98.0624H102.781C102.588 98.0625 102.399 98.0047 102.239 97.8967C102.079 97.7887 101.955 97.6353 101.883 97.4562C101.811 97.2771 101.794 97.0805 101.834 96.8916C101.874 96.7027 101.97 96.5302 102.109 96.3962L128.265 71.2087C128.446 71.0352 128.686 70.9384 128.937 70.9384C129.187 70.9384 129.427 71.0352 129.608 71.2087L155.764 96.3962C155.903 96.5301 155.999 96.7024 156.039 96.8911C156.08 97.0798 156.063 97.2763 155.991 97.4553C155.919 97.6343 155.795 97.7877 155.635 97.8959C155.475 98.0041 155.287 98.0621 155.094 98.0624H150.25V127.125H151.219C151.476 127.125 151.722 127.227 151.904 127.409C152.085 127.59 152.188 127.837 152.188 128.094C152.188 128.351 152.085 128.597 151.904 128.779C151.722 128.96 151.476 129.062 151.219 129.062Z" fill="black" fill-opacity="0.62"/>
<path d="M133.781 125.188C133.524 125.188 133.278 125.085 133.096 124.904C132.915 124.722 132.812 124.476 132.812 124.219V108.719C132.812 108.462 132.915 108.215 133.096 108.034C133.278 107.852 133.524 107.75 133.781 107.75C134.038 107.75 134.285 107.852 134.466 108.034C134.648 108.215 134.75 108.462 134.75 108.719V124.219C134.75 124.476 134.648 124.722 134.466 124.904C134.285 125.085 134.038 125.188 133.781 125.188ZM129.906 125.188C129.649 125.188 129.403 125.085 129.221 124.904C129.04 124.722 128.938 124.476 128.938 124.219V111.625C128.938 111.368 129.04 111.122 129.221 110.94C129.403 110.758 129.649 110.656 129.906 110.656C130.163 110.656 130.41 110.758 130.591 110.94C130.773 111.122 130.875 111.368 130.875 111.625V124.219C130.875 124.476 130.773 124.722 130.591 124.904C130.41 125.085 130.163 125.188 129.906 125.188ZM126.031 125.188C125.774 125.188 125.528 125.085 125.346 124.904C125.165 124.722 125.062 124.476 125.062 124.219V114.531C125.062 114.274 125.165 114.028 125.346 113.846C125.528 113.665 125.774 113.562 126.031 113.562C126.288 113.562 126.535 113.665 126.716 113.846C126.898 114.028 127 114.274 127 114.531V124.219C127 124.476 126.898 124.722 126.716 124.904C126.535 125.085 126.288 125.188 126.031 125.188ZM122.156 125.188C121.899 125.188 121.653 125.085 121.471 124.904C121.29 124.722 121.188 124.476 121.188 124.219V112.594C121.188 112.337 121.29 112.09 121.471 111.909C121.653 111.727 121.899 111.625 122.156 111.625C122.413 111.625 122.66 111.727 122.841 111.909C123.023 112.09 123.125 112.337 123.125 112.594V124.219C123.125 124.476 123.023 124.722 122.841 124.904C122.66 125.085 122.413 125.188 122.156 125.188ZM118.281 125.188C118.024 125.188 117.778 125.085 117.596 124.904C117.415 124.722 117.312 124.476 117.312 124.219V113.562C117.312 113.306 117.415 113.059 117.596 112.877C117.778 112.696 118.024 112.594 118.281 112.594C118.538 112.594 118.785 112.696 118.966 112.877C119.148 113.059 119.25 113.306 119.25 113.562V124.219C119.25 124.476 119.148 124.722 118.966 124.904C118.785 125.085 118.538 125.188 118.281 125.188ZM114.406 125.188C114.149 125.188 113.903 125.085 113.721 124.904C113.54 124.722 113.438 124.476 113.438 124.219V118.406C113.438 118.149 113.54 117.903 113.721 117.721C113.903 117.54 114.149 117.438 114.406 117.438C114.663 117.438 114.91 117.54 115.091 117.721C115.273 117.903 115.375 118.149 115.375 118.406V124.219C115.375 124.476 115.273 124.722 115.091 124.904C114.91 125.085 114.663 125.188 114.406 125.188ZM110.531 125.188C110.274 125.188 110.028 125.085 109.846 124.904C109.665 124.722 109.562 124.476 109.562 124.219V120.344C109.562 120.087 109.665 119.84 109.846 119.659C110.028 119.477 110.274 119.375 110.531 119.375C110.788 119.375 111.035 119.477 111.216 119.659C111.398 119.84 111.5 120.087 111.5 120.344V124.219C111.5 124.476 111.398 124.722 111.216 124.904C111.035 125.085 110.788 125.188 110.531 125.188ZM106.656 125.188C106.399 125.188 106.153 125.085 105.971 124.904C105.79 124.722 105.688 124.476 105.688 124.219V119.375C105.688 119.118 105.79 118.872 105.971 118.69C106.153 118.508 106.399 118.406 106.656 118.406C106.913 118.406 107.16 118.508 107.341 118.69C107.523 118.872 107.625 119.118 107.625 119.375V124.219C107.625 124.476 107.523 124.722 107.341 124.904C107.16 125.085 106.913 125.188 106.656 125.188ZM98.9062 125.188C98.6493 125.188 98.4029 125.085 98.2212 124.904C98.0396 124.722 97.9375 124.476 97.9375 124.219V122.281C97.9375 122.024 98.0396 121.778 98.2212 121.596C98.4029 121.415 98.6493 121.312 98.9062 121.312C99.1632 121.312 99.4096 121.415 99.5913 121.596C99.7729 121.778 99.875 122.024 99.875 122.281V124.219C99.875 124.476 99.7729 124.722 99.5913 124.904C99.4096 125.085 99.1632 125.188 98.9062 125.188ZM102.781 125.188C102.524 125.188 102.278 125.085 102.096 124.904C101.915 124.722 101.812 124.476 101.812 124.219V120.344C101.812 120.087 101.915 119.84 102.096 119.659C102.278 119.477 102.524 119.375 102.781 119.375C103.038 119.375 103.285 119.477 103.466 119.659C103.648 119.84 103.75 120.087 103.75 120.344V124.219C103.75 124.476 103.648 124.722 103.466 124.904C103.285 125.085 103.038 125.188 102.781 125.188ZM137.656 129.062H98.9062C98.6493 129.062 98.4029 128.96 98.2212 128.779C98.0396 128.597 97.9375 128.351 97.9375 128.094C97.9375 127.837 98.0396 127.59 98.2212 127.409C98.4029 127.227 98.6493 127.125 98.9062 127.125H137.656C137.913 127.125 138.16 127.227 138.341 127.409C138.523 127.59 138.625 127.837 138.625 128.094C138.625 128.351 138.523 128.597 138.341 128.779C138.16 128.96 137.913 129.062 137.656 129.062Z" fill="black" fill-opacity="0.62"/>
<path d="M98.906 119.373C98.7146 119.373 98.5274 119.316 98.3682 119.21C98.209 119.104 98.0849 118.952 98.0115 118.776C97.9381 118.599 97.9188 118.404 97.9559 118.216C97.993 118.028 98.085 117.856 98.2202 117.72L105.001 110.939C105.183 110.757 105.429 110.655 105.686 110.655C105.943 110.655 106.19 110.757 106.371 110.939L109.562 114.128L119.533 104.158C119.714 103.976 119.961 103.874 120.218 103.874C120.474 103.874 120.721 103.976 120.902 104.158L125.062 108.316L137.939 95.4391C138.122 95.2626 138.366 95.1649 138.62 95.1672C138.874 95.1694 139.117 95.2712 139.297 95.4509C139.477 95.6305 139.578 95.8734 139.581 96.1274C139.583 96.3815 139.485 96.6262 139.309 96.8089L125.746 110.369C125.565 110.551 125.318 110.653 125.061 110.653C124.804 110.653 124.558 110.551 124.376 110.369L120.219 106.213L110.248 116.184C110.067 116.365 109.82 116.468 109.563 116.468C109.306 116.468 109.06 116.365 108.878 116.184L105.687 112.993L99.5919 119.088C99.5019 119.178 99.3951 119.25 99.2774 119.299C99.1597 119.348 99.0335 119.373 98.906 119.373Z" fill="black" fill-opacity="0.62"/>
<path d="M138.627 103.873C138.489 103.873 138.353 103.844 138.228 103.788C138.102 103.731 137.99 103.649 137.899 103.545C137.808 103.442 137.74 103.321 137.699 103.189C137.659 103.057 137.647 102.919 137.664 102.782L138.478 96.2702L131.966 97.084C131.84 97.0999 131.711 97.0907 131.589 97.0571C131.466 97.0234 131.351 96.9659 131.25 96.8878C131.15 96.8097 131.065 96.7126 131.002 96.602C130.939 96.4914 130.899 96.3694 130.883 96.2431C130.867 96.1168 130.876 95.9885 130.91 95.8657C130.943 95.7429 131.001 95.628 131.079 95.5274C131.157 95.4268 131.254 95.3426 131.365 95.2796C131.475 95.2166 131.597 95.1759 131.724 95.16L139.474 94.1913C139.62 94.1738 139.769 94.1898 139.908 94.2381C140.047 94.2863 140.174 94.3656 140.278 94.4699C140.383 94.5741 140.462 94.7007 140.51 94.8401C140.558 94.9794 140.574 95.1279 140.557 95.2743L139.588 103.024C139.558 103.258 139.444 103.474 139.268 103.63C139.091 103.786 138.863 103.872 138.627 103.873ZM128.938 90.295C126.81 90.295 125.08 88.5628 125.08 86.4374C125.08 84.312 126.81 82.5798 128.938 82.5798C131.065 82.5798 132.795 84.31 132.795 86.4374C132.795 88.5648 131.065 90.295 128.938 90.295ZM128.938 84.5173C128.428 84.5173 127.94 84.7197 127.579 85.08C127.219 85.4403 127.017 85.9289 127.017 86.4384C127.017 86.9479 127.219 87.4365 127.579 87.7967C127.94 88.157 128.428 88.3594 128.938 88.3594C129.447 88.3594 129.936 88.157 130.296 87.7967C130.656 87.4365 130.859 86.9479 130.859 86.4384C130.859 85.9289 130.656 85.4403 130.296 85.08C129.936 84.7197 129.447 84.5173 128.938 84.5173Z" fill="black" fill-opacity="0.62"/>
<path d="M155.094 129.062C155.629 129.062 156.062 128.629 156.062 128.094C156.062 127.559 155.629 127.125 155.094 127.125C154.559 127.125 154.125 127.559 154.125 128.094C154.125 128.629 154.559 129.062 155.094 129.062Z" fill="black" fill-opacity="0.62"/>
<defs>
<linearGradient id="paint0_linear_1227_15" x1="184.344" y1="162.197" x2="71.3619" y2="48.5082" gradientUnits="userSpaceOnUse">
<stop stop-color="#EBEAEA"/>
<stop offset="1" stop-color="white"/>
</linearGradient>
</defs>
</svg>

<svg width="253" height="352" fill="none" xmlns="http://www.w3.org/2000/svg"><path d="M12 319.797C12 327.182 10.278 330 5.989 330 1.699 330 0 326.96 0 319.785 0 312.06 2.424 310 6.087 310c3.896 0 5.913 2.375 5.913 9.797Zm-8.632-.115c0 5.112.371 7.754 2.643 7.754s2.621-2.523 2.621-7.692c0-5.334-.447-7.159-2.603-7.159-2.035-.004-2.661 1.936-2.661 7.097ZM252.989 266.215v.46c-.122 2.249-1.075 4.355-2.651 5.858-1.575 1.503-3.646 2.28-5.758 2.162-2.112-.119-4.094-1.123-5.513-2.794-1.419-1.671-2.159-3.872-2.058-6.122.11-2.217 1.028-4.301 2.559-5.808 1.53-1.507 3.552-2.319 5.636-2.262 2.083.057 4.064.978 5.52 2.566 1.456 1.589 2.273 3.72 2.276 5.94h-.011Zm-12.287 0a4.782 4.782 0 0 0 1.335 3.221 4.212 4.212 0 0 0 3.073 1.294c1.144-.016 2.237-.512 3.041-1.379a4.798 4.798 0 0 0 1.255-3.257 4.793 4.793 0 0 0-1.255-3.256 4.227 4.227 0 0 0-3.041-1.379 4.212 4.212 0 0 0-3.073 1.294 4.78 4.78 0 0 0-1.335 3.22v.242Z" fill="#FFB75E"/><path d="M128.014 19.707c-44.082 0-80.335 33.581-84.667 76.604a12.986 12.986 0 0 1-6.49 9.985A55.129 55.129 0 0 0 16.483 126.5 55.264 55.264 0 0 0 9 154.225v65.5a2.025 2.025 0 0 0 1.77 2.04 1.968 1.968 0 0 0 1.513-.503 1.961 1.961 0 0 0 .64-1.462v-65.583a51.015 51.015 0 0 1 10.563-31.144c6.411-8.361 19.65-5.669 22.435 4.501 9.887 36.117 42.889 62.658 82.077 62.658 39.189 0 72.194-26.541 82.081-62.658 2.782-10.17 16.02-12.862 22.431-4.501a51.018 51.018 0 0 1 10.566 31.144v104.44a2.024 2.024 0 0 0 1.766 2.04 1.956 1.956 0 0 0 1.516-.502 1.959 1.959 0 0 0 .642-1.464V154.217a55.264 55.264 0 0 0-7.482-27.725 55.134 55.134 0 0 0-20.375-20.204 12.949 12.949 0 0 1-4.457-4.202 12.99 12.99 0 0 1-2.033-5.782c-4.304-43.016-40.554-76.597-84.639-76.597Z" fill="#FFB75E"/><path d="M129.528 25.73c42.883 1.056 77.418 35.411 78.449 78.02 1.097 45.388-36.439 82.847-82.115 81.94-20.786-.396-40.609-8.778-55.31-23.387-14.7-14.608-23.136-34.308-23.536-54.964-.916-45.427 36.805-82.719 82.512-81.608Z" fill="url(#a)"/><path d="M180.32 52.796c-29.139-29.158-76.287-29.254-105.31-.213-29.02 29.041-28.925 76.221.214 105.38 29.139 29.158 76.288 29.254 105.31.213 29.021-29.041 28.926-76.22-.214-105.38Z" fill="#F9F9F9"/><path d="M12 252.564v.285c0 .758-.158 1.485-.44 2.021-.28.536-.662.837-1.06.837s-.78-.301-1.06-.837c-.282-.536-.44-1.263-.44-2.021v-.285c0-.758.158-1.485.44-2.021.28-.535.662-.836 1.06-.836s.78.301 1.06.836c.282.536.44 1.263.44 2.021ZM12 285.634v.386c0 .511-.158 1.001-.44 1.363-.28.361-.662.564-1.06.564s-.78-.203-1.06-.564c-.282-.362-.44-.852-.44-1.363v-.386c0-.511.158-1.001.44-1.363.28-.361.662-.564 1.06-.564s.78.203 1.06.564c.282.362.44.852.44 1.363Zm0 31.878v.385c0 .512-.158 1.002-.44 1.363-.28.362-.662.565-1.06.565s-.78-.203-1.06-.565c-.282-.361-.44-.851-.44-1.363v-.385c0-.511.158-1.002.44-1.363.28-.362.662-.565 1.06-.565s.78.203 1.06.565c.282.361.44.852.44 1.363Zm0 31.881v.386c0 .511-.158 1.001-.44 1.363-.28.361-.662.565-1.06.565s-.78-.204-1.06-.565c-.282-.362-.44-.852-.44-1.363v-.386c0-.511.158-1.001.44-1.362.28-.362.662-.565 1.06-.565s.78.203 1.06.565c.282.361.44.851.44 1.362ZM18.6 330v-16.289c-.85.196-1.723.3-2.6.31v-2.415A7.629 7.629 0 0 0 19.727 310H22v20h-3.4Z" fill="#FFB75E"/><path d="M147.344 85.469a.968.968 0 0 1-.969-.97v-9.687H142.5v4.844a.968.968 0 1 1-1.937 0v-5.812a.971.971 0 0 1 .968-.97h5.813a.97.97 0 0 1 .969.97V84.5a.972.972 0 0 1-.969.969Zm3.875 43.593h-9.606a.97.97 0 1 1 0-1.937h6.7V98.062h-2.907a.969.969 0 0 1 0-1.937h7.285L128.938 73.25l-23.754 22.874h7.285a.97.97 0 0 1 0 1.937h-2.906v10.657a.971.971 0 0 1-1.654.685.968.968 0 0 1-.284-.685V98.062h-4.844a.969.969 0 0 1-.672-1.666l26.156-25.187a.97.97 0 0 1 1.343 0l26.156 25.187a.966.966 0 0 1 .227 1.06.968.968 0 0 1-.897.606h-4.844v29.063h.969a.968.968 0 1 1 0 1.937Z" fill="#000" fill-opacity=".62"/><path d="M133.781 125.188a.972.972 0 0 1-.969-.969v-15.5a.97.97 0 0 1 1.654-.685.966.966 0 0 1 .284.685v15.5a.968.968 0 0 1-.969.969Zm-3.875 0a.971.971 0 0 1-.968-.969v-12.594a.971.971 0 0 1 .968-.969.966.966 0 0 1 .969.969v12.594a.968.968 0 0 1-.969.969Zm-3.875 0a.972.972 0 0 1-.969-.969v-9.688a.972.972 0 0 1 .969-.969.97.97 0 0 1 .969.969v9.688a.968.968 0 0 1-.969.969Zm-3.875 0a.971.971 0 0 1-.968-.969v-11.625a.97.97 0 1 1 1.937 0v11.625a.968.968 0 0 1-.969.969Zm-3.875 0a.972.972 0 0 1-.969-.969v-10.657a.971.971 0 0 1 1.654-.685.97.97 0 0 1 .284.685v10.657a.968.968 0 0 1-.969.969Zm-3.875 0a.971.971 0 0 1-.968-.969v-5.813c0-.257.102-.503.283-.685a.971.971 0 0 1 1.37 0 .968.968 0 0 1 .284.685v5.813a.968.968 0 0 1-.969.969Zm-3.875 0a.972.972 0 0 1-.969-.969v-3.875a.97.97 0 0 1 1.654-.685.966.966 0 0 1 .284.685v3.875a.968.968 0 0 1-.969.969Zm-3.875 0a.971.971 0 0 1-.968-.969v-4.844a.971.971 0 0 1 .968-.969.966.966 0 0 1 .969.969v4.844a.968.968 0 0 1-.969.969Zm-7.75 0a.972.972 0 0 1-.969-.969v-1.938a.97.97 0 0 1 1.938 0v1.938a.97.97 0 0 1-.969.969Zm3.875 0a.972.972 0 0 1-.969-.969v-3.875a.97.97 0 0 1 1.654-.685.966.966 0 0 1 .284.685v3.875a.968.968 0 0 1-.969.969Zm34.875 3.874h-38.75a.971.971 0 0 1-.969-.968.968.968 0 0 1 .97-.969h38.749a.966.966 0 0 1 .969.969.968.968 0 0 1-.969.968Z" fill="#000" fill-opacity=".62"/><path d="M98.906 119.373a.971.971 0 0 1-.95-1.157.97.97 0 0 1 .264-.496l6.781-6.781a.968.968 0 0 1 1.37 0l3.191 3.189 9.971-9.97a.966.966 0 0 1 1.369 0l4.16 4.158 12.877-12.877a.968.968 0 0 1 1.37 1.37l-13.563 13.56a.966.966 0 0 1-1.37 0l-4.157-4.156-9.971 9.971a.97.97 0 0 1-1.37 0l-3.191-3.191-6.095 6.095a.976.976 0 0 1-.686.285Z" fill="#000" fill-opacity=".62"/><path d="M138.627 103.873a.976.976 0 0 1-.728-.328.972.972 0 0 1-.235-.763l.814-6.512-6.512.814a.968.968 0 0 1-.887-1.557.964.964 0 0 1 .645-.367l7.75-.969a.972.972 0 0 1 1.083 1.083l-.969 7.75a.977.977 0 0 1-.32.606.976.976 0 0 1-.641.243Zm-9.689-13.578a3.863 3.863 0 0 1-3.858-3.858 3.863 3.863 0 0 1 3.858-3.857 3.861 3.861 0 0 1 3.857 3.857 3.861 3.861 0 0 1-3.857 3.858Zm0-5.778a1.923 1.923 0 0 0-1.359 3.28 1.923 1.923 0 0 0 3.28-1.359 1.923 1.923 0 0 0-1.921-1.92ZM155.094 129.062a.968.968 0 1 0 .001-1.935.968.968 0 0 0-.001 1.935Z" fill="#000" fill-opacity=".62"/><defs><linearGradient id="a" x1="184.344" y1="162.197" x2="71.362" y2="48.508" gradientUnits="userSpaceOnUse"><stop stop-color="#EBEAEA"/><stop offset="1" stop-color="#fff"/></linearGradient></defs></svg>
